icon/ir/city.svg

<svg stroke-width="1.5" viewBox="0 0 24 24" fill="none" xmlns="http://www.w3.org/2000/svg" height="1em" width="1em">
  <path d="M7 9.01L7.01 8.99889" stroke="currentColor" stroke-linecap="round" stroke-linejoin="round"/>
  <path d="M11 9.01L11.01 8.99889" stroke="currentColor" stroke-linecap="round" stroke-linejoin="round"/>
  <path d="M7 13.01L7.01 12.9989" stroke="currentColor" stroke-linecap="round" stroke-linejoin="round"/>
  <path d="M11 13.01L11.01 12.9989" stroke="currentColor" stroke-linecap="round" stroke-linejoin="round"/>
  <path d="M7 17.01L7.01 16.9989" stroke="currentColor" stroke-linecap="round" stroke-linejoin="round"/>
  <path d="M11 17.01L11.01 16.9989" stroke="currentColor" stroke-linecap="round" stroke-linejoin="round"/>
  <path d="M15 21H3.6C3.26863 21 3 20.7314 3 20.4V5.6C3 5.26863 3.26863 5 3.6 5H9V3.6C9 3.26863 9.26863 3 9.6 3H14.4C14.7314 3 15 3.26863 15 3.6V9M15 21H20.4C20.7314 21 21 20.7314 21 20.4V9.6C21 9.26863 20.7314 9 20.4 9H15M15 21V17M15 9V13M15 13H17M15 13V17M15 17H17" stroke="currentColor" stroke-linecap="round" stroke-linejoin="round"/>
</svg>

<svg width="24" height="24" stroke-width="1.5" fill="none" xmlns="http://www.w3.org/2000/svg"><path d="m7 9.01.01-.011M11 9.01l.01-.011M7 13.01l.01-.011M11 13.01l.01-.011M7 17.01l.01-.011M11 17.01l.01-.011M15 21H3.6a.6.6 0 0 1-.6-.6V5.6a.6.6 0 0 1 .6-.6H9V3.6a.6.6 0 0 1 .6-.6h4.8a.6.6 0 0 1 .6.6V9m0 12h5.4a.6.6 0 0 0 .6-.6V9.6a.6.6 0 0 0-.6-.6H15m0 12v-4m0-8v4m0 0h2m-2 0v4m0 0h2" stroke="currentColor" stroke-linecap="round" stroke-linejoin="round"/></svg>
